static/images/invite/telegram.svg

<svg width="40" height="40" viewBox="0 0 40 40" fill="none" xmlns="http://www.w3.org/2000/svg">
<rect width="40" height="40" rx="20" fill="white" fill-opacity="0.08"/>
<g clip-path="url(#clip0_11686_8010)">
<path d="M16.2912 23.1185L15.902 28.593C16.4588 28.593 16.7 28.3538 16.9892 28.0665L19.6 25.5714L25.0098 29.5332C26.002 30.0862 26.701 29.795 26.9686 28.6205L30.5196 11.9812L30.5206 11.9803C30.8353 10.5136 29.9902 9.94007 29.0235 10.2999L8.15099 18.2911C6.72648 18.844 6.74804 19.6381 7.90883 19.9979L13.2451 21.6577L25.6402 13.9018C26.2235 13.5156 26.7539 13.7293 26.3177 14.1156L16.2912 23.1185Z" fill="#35ABE7"/>
</g>
<defs>
<clipPath id="clip0_11686_8010">
<rect width="23.5294" height="23.5294" fill="white" transform="translate(7.05884 8.23535)"/>
</clipPath>
</defs>
</svg>

<svg xmlns="http://www.w3.org/2000/svg" width="40" height="40" fill="none"><rect width="40" height="40" fill="#fff" fill-opacity=".08" rx="20"/><g clip-path="url(#a)"><path fill="#35ABE7" d="m16.291 23.119-.389 5.474c.557 0 .798-.24 1.087-.526L19.6 25.57l5.41 3.962c.992.553 1.691.262 1.959-.913l3.55-16.639h.002c.314-1.467-.53-2.04-1.498-1.681L8.151 18.29c-1.425.553-1.403 1.347-.242 1.707l5.336 1.66 12.395-7.756c.584-.386 1.114-.173.678.214L16.29 23.119Z"/></g><defs><clipPath id="a"><path fill="#fff" d="M7.059 8.235h23.529v23.53H7.058z"/></clipPath></defs></svg>
